X: 10813
T: FIREFLY HORNPIPE
R: hornpipe, reel
B: K\"ohler's Violin Repository, v.1, 1885 p.81 #3
F: http://www.archive.org/details/klersviolinrepos01edin
Z: 2012 John Chambers <jc:trillian.mit.edu>
M: C|
L: 1/8
K: Bb
u((3FGA) |\
(B>A)B>c (B>d)c>B | (A>B)G>A (F>G)E>F | (D>F)B>F (G>E)e>d | (3cdc (3BAG F2 ((3FGA) |
(B>A)B>c (B>d)c>B | (A>B)G>A (F>G)E>F | (D>F)B>d (d>c)B>A | c2B2B2 :|
|: u(F>E) |\
((3DFB) d2 ((3Bdf) b2 | b3(a g>f)e>d | (e>d)e>f (e>d)c>B | (A>c)B>G F2F>E |
(3DFB d2 (3Bdf b2 | b3(a g>f)e>d | (e>d)c>B (A>f)g>a | b2B2B2 :|

%%sep 2 1 500

